X: 6487
T: Cat In The Hopper, The
R: jig
M: 6/8
K: Edorian
|:B,EF G2A|~F3 D2F|E3 e2c|dBA B2c|
dfe dcB|BAF G2A|B/c/dB G2A|1 BGE E3:|2 BGE E2B||
|:~e3 efg|~f3 d2f|ede edc|dBA B2c|
dfe dcB|BAF G2A|B/c/dB G2A|1 BGE E2B:|2 BGE E3||

